X:1
T:Title
C:Composer
L:1/4
M:4/4
I:linebreak $
K:C
 c c d e | d G A B/G/ | E E F G | G3/2 G/ G2 | c c d e | d G A B/G/ | E E F G | G3/2 G/ E z | 
 D/G,/B,/D/ G G |$ F G/F/ G E | D/G,/B,/D/ G G | A/^F/D/A/ G =F | E c d e | d G A B/G/ | E E F G | 
 G3/2 G/ C2 |] 
